src/assets/icons/icons-origin/Trash.svg

<svg width="24" height="24" viewBox="0 0 24 24" xmlns="http://www.w3.org/2000/svg">
  <path d="M21 6.00001H16V4.33001C15.9765 3.68982 15.7002 3.08506 15.2316 2.6483C14.7629 2.21153 14.1402 1.9784 13.5 2.00001H10.5C9.85975 1.9784 9.23706 2.21153 8.76843 2.6483C8.2998 3.08506 8.02346 3.68982 8 4.33001V6.00001H3C2.73478 6.00001 2.48043 6.10536 2.29289 6.2929C2.10536 6.48043 2 6.73479 2 7.00001C2 7.26522 2.10536 7.51958 2.29289 7.70711C2.48043 7.89465 2.73478 8.00001 3 8.00001H4V19C4 19.7957 4.31607 20.5587 4.87868 21.1213C5.44129 21.6839 6.20435 22 7 22H17C17.7956 22 18.5587 21.6839 19.1213 21.1213C19.6839 20.5587 20 19.7957 20 19V8.00001H21C21.2652 8.00001 21.5196 7.89465 21.7071 7.70711C21.8946 7.51958 22 7.26522 22 7.00001C22 6.73479 21.8946 6.48043 21.7071 6.2929C21.5196 6.10536 21.2652 6.00001 21 6.00001ZM10 4.33001C10 4.17001 10.21 4.00001 10.5 4.00001H13.5C13.79 4.00001 14 4.17001 14 4.33001V6.00001H10V4.33001Z" fill="currentColor" />
</svg>

<svg width="24" height="24" viewBox="0 0 24 24" xmlns="http://www.w3.org/2000/svg">
  <path d="M21 6h-5V4.33A2.42 2.42 0 0 0 13.5 2h-3A2.42 2.42 0 0 0 8 4.33V6H3a1 1 0 1 0 0 2h1v11a3 3 0 0 0 3 3h10a3 3 0 0 0 3-3V8h1a1 1 0 1 0 0-2ZM10 4.33c0-.16.21-.33.5-.33h3c.29 0 .5.17.5.33V6h-4V4.33Z" fill="currentColor"/>
</svg>
